X: 4157
T: HUMOURS OF BALLYCONNELL
%R: reel
B: James Kerr "Merry Melodies" v.4 p.19 #157
Z: 2016 John Chambers <jc:trillian.mit.edu>
M: C|
L: 1/8
K: D
|:\
dgfe dBAB | dBAF E3c  |\
dgfe dBAB | dBAF D2D2 ::\
FDAD FDAD | GEBE GEBE |
FDAD FDAc | BGAF D2D2 ::\
abaf abaf | gebe gebe |\
abaf abaf | edef d2D2 :|

%%sep 1 1 500
%%sep 1 1 500

